outputs/icons/alert/important_notification_sharp.svg

<svg xmlns="http://www.w3.org/2000/svg" width="1200" height="1200" fill="none"><g clip-path="url(#a)"><path fill="#000" d="M600 1150c55 0 99.5-44.5 99.5-99.5h-199c0 55 44.5 99.5 99.5 99.5m350-300V550c0-167.5-118-307.5-275-341.5V75H525v133.5c-157 34-275 174-275 341.5v300L150 950v50h900v-50zm-300-50H550V700h100zm0-200H550V400h100z"/></g><defs><clipPath id="a"><path fill="#fff" d="M0 0h1200v1200H0z"/></clipPath></defs></svg>

<svg width="1200" height="1200" viewBox="0 0 1200 1200" fill="none" xmlns="http://www.w3.org/2000/svg"><g clip-path="url(#clip0_125_1302)"><path d="M600 1150C655 1150 699.5 1105.5 699.5 1050.5H500.5C500.5 1105.5 545 1150 600 1150ZM950 850V550C950 382.5 832 242.5 675 208.5V75H525V208.5C368 242.5 250 382.5 250 550V850L150 950V1000H1050V950L950 850ZM650 800H550V700H650V800ZM650 600H550V400H650V600Z" fill="black"/></g><defs><clipPath id="clip0_125_1302"><path width="24" fill="white" d="M0 0H1200V1200H0V0z"/></clipPath></defs></svg>
